X:1
T:Title
%%score [ ( 1 2 ) ( 3 4 ) ( 5 6 ) ( 7 8 ) ]
L:1/8
Q:1/4=144
M:3/4
K:F
V:1 treble nm="Soprano" snm="S"
V:2 treble 
V:3 treble nm="Alto" snm="A"
V:4 treble 
V:5 treble-8 nm="Tenor" snm="T"
V:6 treble-8 
V:7 bass nm="Bass" snm="B"
V:8 bass 
V:1
"^Zart" C2 | FA A3 B | AG G2 FF | E2 EF GA | F2 z2 C2 | FA A3 B | AG G2 FF | E2 EF GA | F2 z2 c2 | %9
w: 1.Er-|lau- be mir, eins|Mäd- * chen, in den|Gar- ten _ zu _|gehn, daß|ich _ mag dort|schau- * en, wie die|Ro- sen _ so _|schön. Er-|
w: 2.O|Mäd- * chen, o|Mäd- * chen, du _|ein- sa- * mes _|Kind, wer|hat _ den Ge-|dan- * ken * ins|Herz der _ ge- *|zinnt, daß|
 cA A3 c | cG G3 c | =Bc d2 e2 | c2 z2 CC | FA A2 BB | AG G3 F | EF G2 A2 | F2 z2 |] %17
w: lau- be sie zu|bre- * chen, es|ist die höch- ste|Zeit, ih- re|Schön- * heit, ih- re|Ju- * gend hat|mir mein Herz er-|freut.|
w: ich _ soll den|Gar- * ten die|Ro- * sen nicht|sehn? du ge-|fällst _ mei- * nem|Au- * gen, das|muß _ ich ge-|stehn.|
V:2
 x2 | x6 | x6 | x6 | x6 | x6 | x2 G3 F | x6 | x6 | x6 | x6 | x6 | x6 | x2 A3 B | x6 | x6 | x4 |] %17
V:3
 C2 | CF F3 F | F2 F2 FC | C2 C2 E2 | F2 z2 C2 | CF F3 F | FD D2 CC | C2 C2 E2 | F2 z2 F2 | %9
w: 1.Er-|lau- be mir, eins|Mäd- chen, in den|Gar- ten zu|gehn, daß|ich _ mag dort|schau- * en, wie die|Ro- sen so|schön. Er-|
w: 2.O|Mäd- * chen, o|Mäd- chen, * du|ein- sa- mes|Kind, wer|hat _ den Ge-|dan- * ken * ins|Herz der ge-|zinnt, daß|
 AF F3 A | G2 G3 G | Gc =B2 B2 | c2 z2 CC | C2 F2 FF | FD D3 D | CC D2 E2 | C2 z2 |] %17
w: lau- be sie zu|bre- chen, es|ist die höch- ste|Zeit, ih- re|Schön- heit, ih- re|Ju- * gend hat|mir mein Herz er-|freut.|
w: ich _ soll den|Gar- ten die|Ro- * sen nicht|sehn? du ge-|fällst mei- * nem|Au- * gen, das|muß _ ich ge-|stehn.|
V:4
 x2 | x6 | x6 | x6 | x6 | x6 | x2 D3 C | x6 | x6 | x6 | x6 | x6 | x6 | x2 F3 F | x6 | x6 | x4 |] %17
V:5
 A2 | Ac c3 d | cB B2 AA | G2 GA Bc | A2 z2 A2 | Ac c3 d | cB B2 AA | G2 GA Bc | A2 z2 A2 | %9
w: 1.Er-|lau- be mir, eins|Mäd- * chen, in den|Gar- ten _ zu _|gehn, daß|ich _ mag dort|schau- * en, wie die|Ro- sen _ so _|schön. Er-|
w: 2.O|Mäd- * chen, o|Mäd- * chen, du _|ein- sa- * mes _|Kind, wer|hat _ den Ge-|dan- * ken * ins|Herz der _ ge- *|zinnt, daß|
 fc c3 f | gc c3 e | de f2 g2 | e2 c2 _B2 | A2 c2 dd | cB B3 A | GA B2 c2 | A2 z2 |] %17
w: lau- be sie zu|bre- * chen, es|ist die höch- ste|Zeit, ih- re|Schön- heit, ih- re|Ju- * gend hat|mir mein Herz er-|freut.|
w: ich _ soll den|Gar- * ten die|Ro- * sen nicht|sehn? du ge-|fällst mei- * nem|Au- * gen, das|muß _ ich ge-|stehn.|
V:6
 x2 | x6 | x6 | x6 | x6 | x6 | x2 B3 A | x6 | x6 | x6 | x6 | x6 | x6 | x2 c3 d | x6 | x6 | x4 |] %17
V:7
 F,2 | F,F, F,3 F, | F,2 F,2 F,F, | C,2 C,2 C,2 | F,2 z2 F,2 | F,2 F,3 F, | F,2 F,2 F,F, | %7
w: 1.Er-|lau- be mir, eins|Mäd- chen, in den|Gar- ten zu|gehn, daß|ich mag dort|schau- en, wie die|
w: 2.O|Mäd- * chen, o|Mäd- chen, du _|ein- sa- mes|Kind, wer|hat den Ge-|dan- ken * ins|
 C,2 C,2 C,2 | F,2 z2 F,2 | F,F, F,3 F, | E,2 E,3 C, | G,G, G,2 G,,2 | C,2 E,2 G,2 | %13
w: Ro- sen so|schön. Er-|lau- be sie zu|bre- chen, es|ist die höch- ste|Zeit, ih- re|
w: Herz der ge-|zinnt, daß|ich _ soll den|Gar- ten die|Ro- * sen nicht|sehn? du ge-|
 A,F, F,2 F,F, | F,B,, B,,3 B,, | C,C, C,2 C,2 | F,,2 z2 |] %17
w: Schön- * heit, ih- re|Ju- * gend hat|mir mein Herz er-|freut.|
w: fällst _ mei- * nem|Au- * gen, das|muß _ ich ge-|stehn.|
V:8
 x2 | x6 | x6 | x6 | x6 | x6 | x2 F,3 F, | x6 | x6 | x6 | x6 | x6 | x6 | x2 F,3 F, | x6 | x6 | %16
 x4 |] %17

